icon-svg/ellevio.svg

<svg xmlns="http://www.w3.org/2000/svg" fill="#44739e" viewBox="0 0 24 24"><path d="M9.84 11.385h.755v-.636h1.389v-.639H9.84Zm3.33-1.275h-.825l.543 1.272h.802zm1.242 2.03.378.926 1.28-2.956h-.82zm2.03.04h.755v1.794h-.755zm0-2.07h.755v1.698h-.755zm-9.037 3.13v.638h1.947v-.638H8.16Zm6.437-1.486h-.795l.948 2.22h.401l.182-.419-.411-1.006zm-3.247.641h1.337v-.638H9.84v2.121h2.144v-.638h-1.389Zm-3.19-2.285h.755v2.758h-.755zm-2.432 0h.755v2.758h-.755Zm0 3.13v.638H6.92v-.638H5.729Zm-2.218-.845h1.337v-.638H2v2.121h2.144v-.638H2.755ZM2 11.385h.755v-.636h1.389v-.639H2Zm19.217.795a1.291 1.291 0 0 1-2.558 0h-.785a2.085 2.085 0 0 0 4.126 0zm-1.282-1.48a1.292 1.292 0 0 1 1.282 1.11H22a2.008 2.008 0 0 0-2.052-1.782 2.014 2.014 0 0 0-2.069 1.782h.782a1.3 1.3 0 0 1 1.274-1.11"/></svg>

<?xml version="1.0" encoding="UTF-8"?>
<svg width="24px" fill="#44739e" height="24px" viewBox="0 0 24 24" version="1.1" xmlns="http://www.w3.org/2000/svg" xmlns:xlink="http://www.w3.org/1999/xlink">
            <path d="m 9.84,11.385 h 0.755 v -0.636 h 1.389 V 10.11 H 9.84 Z m 3.33,-1.275 h -0.825 l 0.543,1.272 h 0.802 z m 1.242,2.03 0.378,0.926 1.28,-2.956 h -0.82 z m 2.029999,0.04 h 0.755 v 1.794 h -0.755 z m 0,-2.07 h 0.755 v 1.698 h -0.755 z M 7.405,13.24 v 0.638 H 9.352 V 13.24 H 8.16 Z m 6.437,-1.486 h -0.795 l 0.948,2.22 h 0.401 l 0.182,-0.419 -0.411,-1.006 z m -3.247,0.641 h 1.337 V 11.757 H 9.84 v 2.121 h 2.144 V 13.24 H 10.595 Z M 7.4050002,10.11 h 0.755 v 2.758 h -0.755 z M 4.973,10.11 h 0.755 v 2.758 H 4.973 Z m 0,3.13 v 0.638 H 6.92 V 13.24 H 5.729 Z M 2.755,12.395 H 4.092 V 11.757 H 2 v 2.121 H 4.144 V 13.24 H 2.755 Z M 2,11.385 H 2.755 V 10.749 H 4.144 V 10.11 H 2 Z m 19.217,0.795 a 1.291,1.291 0 0 1 -2.558,0 h -0.785 a 2.085,2.085 0 0 0 4.126,0 z M 19.935,10.7 a 1.292,1.292 0 0 1 1.282,1.11 H 22 a 2.008,2.008 0 0 0 -2.052,-1.782 v 0 a 2.014,2.014 0 0 0 -2.069,1.782 h 0.782 a 1.3,1.3 0 0 1 1.274,-1.11 z"/>

</svg>
